resources/icons/icon.svg

<?xml version="1.0" encoding="UTF-8" standalone="no"?>
<!-- Created with Inkscape (http://www.inkscape.org/) -->

<svg width="24" height="24" viewBox="0 0 24 24" version="1.1" id="svg5" inkscape:version="1.2.1 (9c6d41e410, 2022-07-14)" xml:space="preserve" sodipodi:docname="icon.svg"
  xmlns:inkscape="http://www.inkscape.org/namespaces/inkscape"
  xmlns:sodipodi="http://sodipodi.sourceforge.net/DTD/sodipodi-0.dtd"
  xmlns="http://www.w3.org/2000/svg"
  xmlns:svg="http://www.w3.org/2000/svg">
  <sodipodi:namedview id="namedview7" pagecolor="#505050" bordercolor="#ffffff" borderopacity="1" inkscape:showpageshadow="0" inkscape:pageopacity="0" inkscape:pagecheckerboard="1" inkscape:deskcolor="#505050" inkscape:document-units="mm" showgrid="false" inkscape:zoom="36.53385" inkscape:cx="11.742535" inkscape:cy="11.058238" inkscape:window-width="2880" inkscape:window-height="1514" inkscape:window-x="3769" inkscape:window-y="-11" inkscape:window-maximized="1" inkscape:current-layer="layer1" />
  <defs id="defs2" />
  <g inkscape:label="Calque 1" inkscape:groupmode="layer" id="layer1">
    <g id="g2903" transform="rotate(45,12.096774,11.766366)">
      <path id="rect577" style="fill:#d45500;stroke-linecap:round" d="M -1.4419363,9.5709677 H 25.829034 c 0.487877,0 0.880644,0.3927674 0.880644,0.8806443 v 3.096776 c 0,0.487877 -0.392767,0.880644 -0.880644,0.880644 H -1.4419363 c -0.487877,0 -0.8806445,-0.392767 -0.8806445,-0.880644 v -3.096776 c 0,-0.4878769 0.3927675,-0.8806443 0.8806445,-0.8806443 z" />
      <path id="path1836" style="stroke-linecap:round" d="M 11.535484,12 A 1.3258065,1.3258065 0 0 1 10.209678,13.325806 1.3258065,1.3258065 0 0 1 8.8838712,12 1.3258065,1.3258065 0 0 1 10.209678,10.674194 1.3258065,1.3258065 0 0 1 11.535484,12 Z" />
      <path id="path1836-1" style="fill:#000000;fill-opacity:1;stroke:none;stroke-linecap:round" d="m -1.4516127,10.674193 c 0.73222296,0 1.32580696,0.593584 1.32580696,1.325807 0,0.732223 -0.593584,1.325807 -1.32580696,1.325807" sodipodi:nodetypes="csc" />
      <path id="path1836-2" style="stroke-linecap:round" d="M 16.164516,12 A 1.3258065,1.3258065 0 0 1 14.83871,13.325806 1.3258065,1.3258065 0 0 1 13.512903,12 1.3258065,1.3258065 0 0 1 14.83871,10.674194 1.3258065,1.3258065 0 0 1 16.164516,12 Z" />
      <path id="path1836-0" style="stroke-linecap:round" d="M 20.793548,12 A 1.3258065,1.3258065 0 0 1 19.467741,13.325806 1.3258065,1.3258065 0 0 1 18.141935,12 1.3258065,1.3258065 0 0 1 19.467741,10.674194 1.3258065,1.3258065 0 0 1 20.793548,12 Z" />
      <path id="path1836-4" style="stroke-linecap:round" d="M 25.42258,12 A 1.3258065,1.3258065 0 0 1 24.096773,13.325806 1.3258065,1.3258065 0 0 1 22.770967,12 1.3258065,1.3258065 0 0 1 24.096773,10.674194 1.3258065,1.3258065 0 0 1 25.42258,12 Z" />
    </g>
  </g>
</svg>

<?xml version="1.0" encoding="UTF-8"?>
<svg width="24" height="24" version="1.1" viewBox="0 0 24 24" xml:space="preserve"
  xmlns="http://www.w3.org/2000/svg">
  <g transform="rotate(45 12.097 11.766)">
    <path d="m-1.4419 9.571h27.271c0.48788 0 0.88064 0.39277 0.88064 0.88064v3.0968c0 0.48788-0.39277 0.88064-0.88064 0.88064h-27.271c-0.48788 0-0.88064-0.39277-0.88064-0.88064v-3.0968c0-0.48788 0.39277-0.88064 0.88064-0.88064z" fill="#d45500" stroke-linecap="round"/>
    <path d="m11.535 12a1.3258 1.3258 0 0 1-1.3258 1.3258 1.3258 1.3258 0 0 1-1.3258-1.3258 1.3258 1.3258 0 0 1 1.3258-1.3258 1.3258 1.3258 0 0 1 1.3258 1.3258z" stroke-linecap="round"/>
    <path d="m-1.4516 10.674c0.73222 0 1.3258 0.59358 1.3258 1.3258s-0.59358 1.3258-1.3258 1.3258"/>
    <g stroke-linecap="round">
      <path d="m16.165 12a1.3258 1.3258 0 0 1-1.3258 1.3258 1.3258 1.3258 0 0 1-1.3258-1.3258 1.3258 1.3258 0 0 1 1.3258-1.3258 1.3258 1.3258 0 0 1 1.3258 1.3258z"/>
      <path d="m20.794 12a1.3258 1.3258 0 0 1-1.3258 1.3258 1.3258 1.3258 0 0 1-1.3258-1.3258 1.3258 1.3258 0 0 1 1.3258-1.3258 1.3258 1.3258 0 0 1 1.3258 1.3258z"/>
      <path d="m25.423 12a1.3258 1.3258 0 0 1-1.3258 1.3258 1.3258 1.3258 0 0 1-1.3258-1.3258 1.3258 1.3258 0 0 1 1.3258-1.3258 1.3258 1.3258 0 0 1 1.3258 1.3258z"/>
    </g>
  </g>

</svg>
